icons/desktop/15/bookmark-mask-only-15.svg

<svg width="15" height="15" viewBox="0 0 15 15" fill="none" xmlns="http://www.w3.org/2000/svg">
<g clip-path="url(#clip0_265_3410)">
<path d="M7.50005 1.002C6.59005 1.002 5.78305 1.548 5.44605 2.394L4.62705 4.453L2.07405 4.618C1.19305 4.676 0.431054 5.25 0.131054 6.08C-0.164946 6.9 0.0500545 7.817 0.679054 8.415C0.889054 8.615 1.10305 8.806 1.31505 8.982C1.78505 9.378 2.28505 9.745 2.80905 10.08L2.22805 12.36C2.00905 13.217 2.32005 14.119 3.02205 14.656C3.41005 14.956 3.87705 15.116 4.36805 15.116C4.74605 15.116 5.12305 15.017 5.45905 14.831C5.89905 14.583 6.31305 14.325 6.69605 14.061C6.97205 13.871 7.24105 13.674 7.49905 13.472C7.75605 13.673 8.02505 13.87 8.30005 14.06C8.68505 14.324 9.09905 14.582 9.53105 14.826C9.87205 15.016 10.2501 15.115 10.6291 15.115C11.1201 15.115 11.5871 14.955 11.9791 14.653C12.6781 14.118 12.9891 13.217 12.7691 12.358L12.1891 10.079C12.7131 9.744 13.2151 9.375 13.6891 8.976C13.8951 8.805 14.1101 8.614 14.3201 8.413C14.9481 7.815 15.1641 6.899 14.8671 6.079C14.5671 5.248 13.8041 4.674 12.9251 4.617L10.3721 4.452L9.55305 2.393C9.21505 1.546 8.40905 1 7.49905 1L7.50005 1.002Z" fill="white"/>
</g>
<defs>
<clipPath id="clip0_265_3410">
<rect width="15" height="15" fill="white"/>
</clipPath>
</defs>
</svg>

<!-- This Source Code Form is subject to the terms of the Mozilla Public
   - License, v. 2.0. If a copy of the MPL was not distributed with this
   - file, You can obtain one at http://mozilla.org/MPL/2.0/. -->
<svg xmlns="http://www.w3.org/2000/svg" width="15" height="15" fill="context-fill" fill-opacity="context-fill-opacity" viewBox="0 0 15 15">
    <path d="M7.5 1.002a2.2 2.2 0 0 0-2.054 1.392l-.819 2.059-2.553.165A2.22 2.22 0 0 0 .131 6.08 2.19 2.19 0 0 0 .68 8.415q.317.302.636.567.706.595 1.494 1.098l-.581 2.28a2.2 2.2 0 0 0 .794 2.296c.388.3.855.46 1.346.46a2.26 2.26 0 0 0 1.091-.285 16 16 0 0 0 2.04-1.359q.387.302.801.588c.385.264.799.522 1.231.766.341.19.72.289 1.098.289.491 0 .958-.16 1.35-.462a2.2 2.2 0 0 0 .79-2.295l-.58-2.279a14.3 14.3 0 0 0 2.131-1.666 2.19 2.19 0 0 0 .547-2.334 2.22 2.22 0 0 0-1.942-1.462l-2.553-.165-.819-2.059A2.2 2.2 0 0 0 7.5 1z" />
</svg>
